symbols/web/account_balance/materialsymbolsoutlined/account_balance_grad200fill1_48px.svg

<svg xmlns="http://www.w3.org/2000/svg" height="48" width="48"><path d="M9.55 36.15V19.6h3.65v16.55Zm12.8 0V19.6H26v16.55ZM2.85 42.8v-3.65h42.3v3.65Zm31.95-6.65V19.6h3.65v16.55ZM2.85 16.6v-3.4L24 1.1l21.15 12.1v3.4Z"/></svg>

<svg xmlns="http://www.w3.org/2000/svg" height="48" width="48"><path d="M9.55 36.15V19.6H13.2V36.15ZM22.35 36.15V19.6H26V36.15ZM2.85 42.8V39.15H45.15V42.8ZM34.8 36.15V19.6H38.45V36.15ZM2.85 16.6V13.2L24 1.1L45.15 13.2V16.6Z"/></svg>
